!!!COM: Bohuslav (Jan) Martinů
!!!OTL: [T491_Mau-112/14-15/78-84]
**kern	**dynam	**kern	**dynam	**kern	**dynam	**kern	**dynam	**kern	**dynam	**kern	**dynam	**kern	**dynam	**kern	**dynam	**kern	**dynam	**kern	**dynam	**kern	**dynam	**kern	**dynam	**kern	**dynam	**kern	**dynam	**kern	**dynam	**kern	**dynam	**kern	**dynam	**kern	**dynam	**kern	**dynam	**kern	**dynam	**kern	**dynam
*grp:A	*grp:A	*grp:A	*grp:A	*grp:A	*grp:A	*grp:B	*grp:B	*grp:B	*grp:B	*grp:B	*grp:B	*grp:A	*grp:A	*grp:A	*grp:A	*grp:A	*grp:A	*grp:A	*grp:A	*grp:A	*grp:A	*grp:A	*grp:A	*grp:A	*grp:A	*grp:A	*grp:A	*grp:A	*grp:A	*grp:A	*grp:A	*grp:A	*grp:A	*grp:A	*grp:A	*grp:A	*grp:A	*grp:A	*grp:A	*grp:B	*grp:B
*part21	*part21	*part20	*part20	*part19	*part19	*part18	*part18	*part17	*part17	*part16	*part16	*part15	*part15	*part14	*part14	*part13	*part13	*part12	*part12	*part11	*part11	*part10	*part10	*part9	*part9	*part8	*part8	*part7	*part7	*part6	*part6	*part5	*part5	*part4	*part4	*part3	*part3	*part2	*part2	*part1	*part1
*staff21	*	*staff20	*	*staff19	*	*staff18	*	*staff17	*	*staff16	*	*staff15	*	*staff14	*	*staff13	*	*staff12	*	*staff11	*	*staff10	*	*staff9	*	*staff8	*	*staff7	*	*staff6	*	*staff5	*	*staff4	*	*staff3	*	*staff2	*	*staff1	*
*I"Contrabass	*	*I"Violoncello	*	*I"Viola	*	*I"Violin II	*	*I"Violin I	*	*I"Tenor Dr.	*	*I"Timpani	*	*I"Trombone III.	*	*I"Trombone I. II.	*	*I"Trumpet in C III.	*	*I"Trumpet in C I. II.	*	*I"Horn in F III. IV.	*	*I"Horn in F I. II.	*	*I"Contrabassoon	*	*I"Bassoon III.	*	*I"Bassoon I. II.	*	*I"Clarinet in Bb III.	*	*I"Clarinet in Bb I. II.	*	*I"Oboe III.	*	*I"Oboe I. II.	*	*I"Flute I. II. III.	*
*I'Cb.	*	*I'Vc.	*	*I'Vla.	*	*I'Vln. II	*	*I'Vln. I	*	*I'Perc.	*	*I'Timp.	*	*I'Tbn. III.	*	*I'Tbn. I. II.	*	*I'C Tpt. III.	*	*I'C Tpt. I. II.	*	*I'Hn. III. IV.	*	*I'Hn. I. II.	*	*I'Cbsn.	*	*I'Bsn. III.	*	*I'Bsn. I. II.	*	*I'Cl. III.	*	*I'Cl. I. II.	*	*I'Ob. III.	*	*I'Ob. I. II.	*	*I'Fl. I. II. III.	*
!!pagebreak:original
*clefF4	*	*clefF4	*	*clefG2	*	*clefG2	*	*clefG2	*	*clefX	*	*clefF4	*	*clefF4	*	*clefF4	*	*clefG2	*	*clefG2	*	*clefG2	*	*clefG2	*	*clefF4	*	*clefF4	*	*clefF4	*	*clefG2	*	*clefG2	*	*clefG2	*	*clefG2	*	*clefG2	*
*ITrd7c12	*	*	*	*	*	*	*	*	*	*	*	*	*	*	*	*	*	*	*	*	*	*ITrd4c7	*	*ITrd4c7	*	*ITrd7c12	*	*	*	*	*	*ITrd1c2	*	*ITrd1c2	*	*	*	*	*	*	*
*k[]	*	*k[]	*	*k[]	*	*k[]	*	*k[]	*	*k[]	*	*k[]	*	*k[]	*	*k[]	*	*k[]	*	*k[]	*	*k[b-]	*	*k[b-]	*	*k[]	*	*k[]	*	*k[]	*	*k[]	*	*k[]	*	*k[]	*	*k[]	*	*k[]	*
*C:	*	*C:	*	*C:	*	*C:	*	*C:	*	*C:	*	*C:	*	*C:	*	*C:	*	*C:	*	*C:	*	*F:	*	*F:	*	*C:	*	*C:	*	*C:	*	*C:	*	*C:	*	*C:	*	*C:	*	*C:	*
*M2/4	*	*M2/4	*	*M2/4	*	*M2/4	*	*M2/4	*	*M2/4	*	*M2/4	*	*M2/4	*	*M2/4	*	*M2/4	*	*M2/4	*	*M2/4	*	*M2/4	*	*M2/4	*	*M2/4	*	*M2/4	*	*M2/4	*	*M2/4	*	*M2/4	*	*M2/4	*	*M2/4	*
=78	=78	=78	=78	=78	=78	=78	=78	=78	=78	=78	=78	=78	=78	=78	=78	=78	=78	=78	=78	=78	=78	=78	=78	=78	=78	=78	=78	=78	=78	=78	=78	=78	=78	=78	=78	=78	=78	=78	=78	=78	=78
.	.	.	.	.	.	.	.	.	.	32qqRcc/LLL	.	.	.	.	.	.	.	.	.	.	.	.	.	.	.	.	.	.	.	.	.	.	.	.	.	.	.	.	.	.	.
.	.	.	.	.	.	.	.	.	.	32qqRcc/	.	.	.	.	.	.	.	.	.	.	.	.	.	.	.	.	.	.	.	.	.	.	.	.	.	.	.	.	.	.	.
!	!	!	!	!	!	!	!	!	!	!	!	!	!	!	!	!	!	!	!	!	!	!	!	!	!	!	!	!	!	!	!	!	!	!	!	!	!	!	!	!LO:TX:t=Allegro [quarter]=100	!
.	.	.	.	.	.	.	.	.	.	32qqRcc/JJJ	.	.	.	.	.	.	.	.	.	.	.	.	.	.	.	.	.	.	.	.	.	.	.	.	.	.	.	.	.	.	.
*	*	*	*	*	*	*	*	*	*	*	*	*	*	*	*	*	*	*	*	*	*	*^	*	*^	*	*	*	*	*	*	*	*	*	*	*	*	*	*	*	*	*
!	!	!	!	!	!	!	!	!	!	!	!LO:DY:ed=brack	!	!	!	!	!	!	!	!	!	!	!	!	!LO:DY:a	!	!	!LO:DY:a	!	!	!	!	!	!	!	!	!	!	!	!	!	!	!	!
8ryy	.	16ryy	4ryy	16ryy	4ryy	16cc#XLL 16ccc#X	f	(16ff#XLL 16fff#X	f	8Rcc\	f	2ryy	.	8ryy	.	8ryy	.	2ryy	.	2ryy	.	16ryy	4ryy	4ryy	16ryy	4ryy	4ryy	8ryy	.	8ryy	.	8ryy	.	8ryy	.	8ryy	.	8ryy	.	8ryy	.	8fff#X'	f
!	!	!	!	!	!	!	!	!LO:TX:a:i:t=(senza string.)	!	!	!	!	!	!	!	!	!	!	!	!	!	!	!	!	!	!	!	!	!	!	!	!	!	!	!	!	!	!	!	!	!	!	!
.	.	16ryy	.	16ryy	.	16cc# 16ccc#	.	16ee 16eee)	.	.	.	.	.	.	.	.	.	.	.	.	.	16ryy	.	.	16ryy	.	.	.	.	.	.	.	.	.	.	.	.	.	.	.	.	.	.
.	.	.	.	.	.	.	.	.	.	.	.	.	.	.	.	.	.	.	.	.	.	.	.	.	.	.	.	.	.	.	.	.	.	8ryy	.	.	.	.	.	.	.	.	.
!	!	!	!	!	!	!	!	!	!	!	!	!	!	!	!LO:DY:ed=brack	!	!LO:DY:ed=brack	!	!	!	!	!	!	!	!	!	!	!	!	!	!	!	!	!	!	!	!	!	!	!	!	!	!
4ryy	4ryy	16ryy	.	16ryy	.	16cc# 16ccc#	.	16ee' 16eee	.	8r	.	.	.	4ryy	4ryy	4ryy	4ryy	.	.	.	.	16ryy	.	.	16ryy	.	.	4ryy	4ryy	4ryy	4ryy	4ryy	4ryy	8ryy	4ryy	16ryy	4ryy	8ryy	4ryy	4ryy	4ryy	8r	.
.	.	16ryy	.	16ryy	.	16cc#JJ 16ccc#	.	16ee'JJ 16eee	.	.	.	.	.	.	.	.	.	.	.	.	.	16ryy	.	.	16ryy	.	.	.	.	.	.	.	.	.	.	16ryy	.	.	.	.	.	.	.
.	.	16ryy	.	16ryy	.	(20cc#LL 20ccc#	.	(20eeLL 20eee	.	4r	.	.	.	.	4ryy	.	4ryy	.	.	.	.	8ryy	16ryy	4ryy	8ryy	16ryy	4ryy	.	.	.	.	.	.	8ryy	.	8ryy	.	16ryy	.	.	.	20fff#LL	.
.	.	.	.	.	.	20dd#X 20ddd#X)	.	20ff# 20fff#)	.	.	.	.	.	.	.	.	.	.	.	.	.	.	.	.	.	.	.	.	.	.	.	.	.	.	.	.	.	.	.	.	.	20fff#	.
.	.	16ryy	.	16ryy	.	.	.	.	.	.	.	.	.	.	.	.	.	.	.	.	.	.	16ryy	.	.	16ryy	.	.	.	.	.	.	.	.	.	.	.	8.ryy	.	.	.	.	.
.	.	.	.	.	.	20dd# 20ddd#	.	20ff# 20fff#	.	.	.	.	.	.	.	.	.	.	.	.	.	.	.	.	.	.	.	.	.	.	.	.	.	.	.	.	.	.	.	.	.	20fff#	.
.	.	.	.	.	.	.	.	.	.	.	.	.	.	.	.	.	.	.	.	.	.	.	.	.	.	.	.	.	.	.	.	.	.	8ryy	.	.	.	.	.	.	.	.	.
8ryy	.	16ryy	.	16ryy	.	.	.	.	.	.	.	.	.	8ryy	4ryy	8ryy	4ryy	.	.	.	.	8ryy	16ryy	.	8ryy	16ryy	.	8ryy	.	8ryy	.	8ryy	.	8ryy	.	16ryy	.	.	.	8ryy	.	.	.
.	.	.	.	.	.	20dd# 20ddd#	.	20ff# 20fff#	.	.	.	.	.	.	.	.	.	.	.	.	.	.	.	.	.	.	.	.	.	.	.	.	.	.	.	.	.	.	.	.	.	20fff#	.
.	.	16ryy	.	16ryy	.	.	.	.	.	.	.	.	.	.	.	.	.	.	.	.	.	.	16ryy	.	.	16ryy	.	.	.	.	.	.	.	.	.	16ryy	.	.	.	.	.	.	.
.	.	.	.	.	.	20dd#JJ 20ddd#	.	20ff#JJ 20fff#	.	.	.	.	.	.	.	.	.	.	.	.	.	.	.	.	.	.	.	.	.	.	.	.	.	.	.	.	.	.	.	.	.	20fff#JJ	.
=79	=79	=79	=79	=79	=79	=79	=79	=79	=79	=79	=79	=79	=79	=79	=79	=79	=79	=79	=79	=79	=79	=79	=79	=79	=79	=79	=79	=79	=79	=79	=79	=79	=79	=79	=79	=79	=79	=79	=79	=79	=79	=79	=79
*	*	*	*	*	*	*	*	*	*	*	*	*	*	*	*	*	*	*	*	*^	*	*	*	*	*	*	*	*	*	*	*	*	*	*	*	*	*	*	*	*	*	*	*
8ryy	.	16ryy	.	16ryy	.	16cc#XLL 16ccc#X	.	(16ff#XLL 16fff#X	.	2r	.	2ryy	.	8ryy	.	8ryy	.	2ryy	.	2ryy	8ryy	4ryy	16ryy	8ryy	.	16ryy	8ryy	.	8ryy	.	8ryy	.	8ryy	.	8ryy	.	8ryy	.	8ryy	.	8ryy	.	8fff#X'	.
.	.	16ryy	.	16ryy	.	16cc# 16ccc#	.	16ee 16eee)	.	.	.	.	.	.	.	.	.	.	.	.	.	.	16ryy	.	.	16ryy	.	.	.	.	.	.	.	.	.	.	.	.	.	.	.	.	.	.
.	.	.	.	.	.	.	.	.	.	.	.	.	.	.	.	.	.	.	.	.	.	.	.	.	.	.	.	.	.	.	.	.	.	.	8ryy	.	.	.	.	.	.	.	.	.
8ryy	.	16ryy	.	16ryy	.	16cc# 16ccc#	.	16ee' 16eee	.	.	.	.	.	8ryy	.	8ryy	.	.	.	.	16ryy	.	16ryy	8ryy	.	16ryy	8ryy	.	8ryy	.	8ryy	.	4ryy	.	8ryy	.	16ryy	.	8ryy	.	4ryy	.	8r	.
.	.	16ryy	.	16ryy	.	16cc#JJ 16ccc#	.	16ee'JJ 16eee	.	.	.	.	.	.	.	.	.	.	.	.	16ryy	.	16ryy	.	.	16ryy	.	.	.	.	.	.	.	.	.	.	16ryy	.	.	.	.	.	.	.
4ryy	.	16ryy	.	16ryy	.	(20cc#LL 20ccc#	.	(20eeLL 20eee	.	.	.	.	.	4ryy	.	4ryy	.	.	.	.	16ryy	.	8ryy	16ryy	.	8ryy	16ryy	.	4ryy	.	4ryy	.	.	.	8ryy	.	8ryy	.	16ryy	.	.	.	20fff#LL	.
.	.	.	.	.	.	20dd#X 20ddd#X)	.	20ff# 20fff#)	.	.	.	.	.	.	.	.	.	.	.	.	.	.	.	.	.	.	.	.	.	.	.	.	.	.	.	.	.	.	.	.	.	.	20fff#	.
.	.	16ryy	.	16ryy	.	.	.	.	.	.	.	.	.	.	.	.	.	.	.	.	16ryy	.	.	16ryy	.	.	16ryy	.	.	.	.	.	.	.	.	.	.	.	8.ryy	.	.	.	.	.
.	.	.	.	.	.	20dd# 20ddd#	.	20ff# 20fff#	.	.	.	.	.	.	.	.	.	.	.	.	.	.	.	.	.	.	.	.	.	.	.	.	.	.	.	.	.	.	.	.	.	.	20fff#	.
.	.	.	.	.	.	.	.	.	.	.	.	.	.	.	.	.	.	.	.	.	.	.	.	.	.	.	.	.	.	.	.	.	.	.	8ryy	.	.	.	.	.	.	.	.	.
.	.	16ryy	.	16ryy	.	.	.	.	.	.	.	.	.	.	.	.	.	.	.	.	16ryy	.	8ryy	16ryy	.	8ryy	16ryy	.	.	.	.	.	8ryy	.	8ryy	.	16ryy	.	.	.	8ryy	.	.	.
.	.	.	.	.	.	20dd# 20ddd#	.	20ff# 20fff#	.	.	.	.	.	.	.	.	.	.	.	.	.	.	.	.	.	.	.	.	.	.	.	.	.	.	.	.	.	.	.	.	.	.	20fff#	.
.	.	16ryy	.	16ryy	.	.	.	.	.	.	.	.	.	.	.	.	.	.	.	.	16ryy	.	.	16ryy	.	.	16ryy	.	.	.	.	.	.	.	.	.	16ryy	.	.	.	.	.	.	.
.	.	.	.	.	.	20dd#JJ 20ddd#	.	20ff#JJ 20fff#	.	.	.	.	.	.	.	.	.	.	.	.	.	.	.	.	.	.	.	.	.	.	.	.	.	.	.	.	.	.	.	.	.	.	20fff#JJ	.
!!pagebreak:original
=80	=80	=80	=80	=80	=80	=80	=80	=80	=80	=80	=80	=80	=80	=80	=80	=80	=80	=80	=80	=80	=80	=80	=80	=80	=80	=80	=80	=80	=80	=80	=80	=80	=80	=80	=80	=80	=80	=80	=80	=80	=80	=80	=80	=80
2ryy	.	16ryy	.	16ryy	.	16cc#XLL 16ccc#X	.	(16ff#XLL 16fff#X	.	2r	.	2ryy	.	2ryy	.	2ryy	.	8ryy	.	8ryy	8ryy	.	16ryy	8ryy	.	16ryy	8ryy	.	2ryy	.	2ryy	.	8ryy	.	8ryy	.	8ryy	.	8ryy	.	8ryy	.	8fff#X'	.
.	.	16ryy	.	16ryy	.	16cc# 16ccc#	.	16ee 16eee)	.	.	.	.	.	.	.	.	.	.	.	.	.	.	16ryy	.	.	16ryy	.	.	.	.	.	.	.	.	.	.	.	.	.	.	.	.	.	.
.	.	.	.	.	.	.	.	.	.	.	.	.	.	.	.	.	.	.	.	.	.	.	.	.	.	.	.	.	.	.	.	.	.	.	8ryy	.	.	.	.	.	.	.	.	.
.	.	16ryy	.	16ryy	.	16cc# 16ccc#	.	16ee 16eee	.	.	.	.	.	.	.	.	.	16ryy	4ryy	16ryy	8ryy	4ryy	16ryy	8ryy	.	16ryy	8ryy	.	.	.	.	.	4ryy	.	8ryy	.	16ryy	.	8ryy	.	4ryy	.	8r	.
.	.	16ryy	.	16ryy	.	16cc#JJ 16ccc#	.	16eeJJ 16eee	.	.	.	.	.	.	.	.	.	16ryy	.	16ryy	.	.	16ryy	.	.	16ryy	.	.	.	.	.	.	.	.	.	.	16ryy	.	.	.	.	.	.	.
.	.	16ryy	.	16ryy	.	(20cc#LL 20ccc#	.	(20eeLL 20eee	.	.	.	.	.	.	.	.	.	16ryy	.	16ryy	4ryy	.	8ryy	16ryy	.	8ryy	16ryy	.	.	.	.	.	.	.	8ryy	.	8ryy	.	16ryy	.	.	.	20fff#LL	.
.	.	.	.	.	.	20dd#X 20ddd#X)	.	20ff# 20fff#)	.	.	.	.	.	.	.	.	.	.	.	.	.	.	.	.	.	.	.	.	.	.	.	.	.	.	.	.	.	.	.	.	.	.	20fff#	.
.	.	16ryy	.	16ryy	.	.	.	.	.	.	.	.	.	.	.	.	.	16ryy	.	16ryy	.	.	.	16ryy	.	.	16ryy	.	.	.	.	.	.	.	.	.	.	.	8.ryy	.	.	.	.	.
.	.	.	.	.	.	20dd# 20ddd#	.	20ff# 20fff#	.	.	.	.	.	.	.	.	.	.	.	.	.	.	.	.	.	.	.	.	.	.	.	.	.	.	.	.	.	.	.	.	.	.	20fff#	.
.	.	.	.	.	.	.	.	.	.	.	.	.	.	.	.	.	.	.	.	.	.	.	.	.	.	.	.	.	.	.	.	.	.	.	8ryy	.	.	.	.	.	.	.	.	.
.	.	16ryy	.	16ryy	.	.	.	.	.	.	.	.	.	.	.	.	.	16ryy	.	16ryy	.	.	8ryy	16ryy	.	8ryy	16ryy	.	.	.	.	.	8ryy	.	8ryy	.	16ryy	.	.	.	8ryy	.	.	.
.	.	.	.	.	.	20dd# 20ddd#	.	20ff# 20fff#	.	.	.	.	.	.	.	.	.	.	.	.	.	.	.	.	.	.	.	.	.	.	.	.	.	.	.	.	.	.	.	.	.	.	20fff#	.
.	.	16ryy	.	16ryy	.	.	.	.	.	.	.	.	.	.	.	.	.	16ryy	.	16ryy	.	.	.	16ryy	.	.	16ryy	.	.	.	.	.	.	.	.	.	16ryy	.	.	.	.	.	.	.
.	.	.	.	.	.	20dd#JJ 20ddd#	.	20ff#JJ 20fff#	.	.	.	.	.	.	.	.	.	.	.	.	.	.	.	.	.	.	.	.	.	.	.	.	.	.	.	.	.	.	.	.	.	.	20fff#JJ	.
!!LO:REH:t=8
=81	=81	=81	=81	=81	=81	=81	=81	=81	=81	=81	=81	=81	=81	=81	=81	=81	=81	=81	=81	=81	=81	=81	=81	=81	=81	=81	=81	=81	=81	=81	=81	=81	=81	=81	=81	=81	=81	=81	=81	=81	=81	=81	=81	=81
4ryy	.	16ryy	.	16ryy	.	16cc#XLL 16ccc#X	.	(16ff#XLL 16fff#X	.	2r	.	2ryy	.	4ryy	4ryy	4ryy	4ryy	8ryy	.	8ryy	8ryy	.	16ryy	8ryy	.	16ryy	8ryy	.	8ryy	.	8ryy	.	8ryy	.	8ryy	.	8ryy	.	8ryy	.	8ryy	.	8fff#X'	.
.	.	16ryy	.	16ryy	.	16cc# 16ccc#	.	16ee 16eee)	.	.	.	.	.	.	.	.	.	.	.	.	.	.	16ryy	.	.	16ryy	.	.	.	.	.	.	.	.	.	.	.	.	.	.	.	.	.	.
.	.	.	.	.	.	.	.	.	.	.	.	.	.	.	.	.	.	.	.	.	.	.	.	.	.	.	.	.	.	.	.	.	.	.	8ryy	.	.	.	.	.	.	.	.	.
.	.	16ryy	.	16ryy	.	16cc# 16ccc#	.	16ee 16eee	.	.	.	.	.	.	.	.	.	8ryy	.	8ryy	16ryy	.	16ryy	8ryy	.	16ryy	8ryy	.	4ryy	.	4ryy	.	4ryy	.	8ryy	.	16ryy	.	8ryy	.	4ryy	.	8r	.
.	.	16ryy	.	16ryy	.	16cc#JJ 16ccc#	.	16eeJJ 16eee	.	.	.	.	.	.	.	.	.	.	.	.	16ryy	.	16ryy	.	.	16ryy	.	.	.	.	.	.	.	.	.	.	16ryy	.	.	.	.	.	.	.
4ryy	.	16ryy	.	16ryy	.	(20cc#LL 20ccc#	.	(20eeLL 20eee	.	.	.	.	.	4ryy	4ryy	4ryy	4ryy	4ryy	.	4ryy	16ryy	.	8ryy	16ryy	.	8ryy	16ryy	.	.	.	.	.	.	.	8ryy	.	8ryy	.	16ryy	.	.	.	20fff#LL	.
.	.	.	.	.	.	20dd#X 20ddd#X)	.	20ff# 20fff#)	.	.	.	.	.	.	.	.	.	.	.	.	.	.	.	.	.	.	.	.	.	.	.	.	.	.	.	.	.	.	.	.	.	.	20fff#	.
.	.	16ryy	.	16ryy	.	.	.	.	.	.	.	.	.	.	.	.	.	.	.	.	16ryy	.	.	16ryy	.	.	16ryy	.	.	.	.	.	.	.	.	.	.	.	8.ryy	.	.	.	.	.
.	.	.	.	.	.	20dd# 20ddd#	.	20ff# 20fff#	.	.	.	.	.	.	.	.	.	.	.	.	.	.	.	.	.	.	.	.	.	.	.	.	.	.	.	.	.	.	.	.	.	.	20fff#	.
.	.	.	.	.	.	.	.	.	.	.	.	.	.	.	.	.	.	.	.	.	.	.	.	.	.	.	.	.	.	.	.	.	.	.	8ryy	.	.	.	.	.	.	.	.	.
.	.	16ryy	.	16ryy	.	.	.	.	.	.	.	.	.	.	.	.	.	.	.	.	16ryy	.	8ryy	16ryy	.	8ryy	16ryy	.	8ryy	.	8ryy	.	8ryy	.	8ryy	.	16ryy	.	.	.	8ryy	.	.	.
.	.	.	.	.	.	20dd# 20ddd#	.	20ff# 20fff#	.	.	.	.	.	.	.	.	.	.	.	.	.	.	.	.	.	.	.	.	.	.	.	.	.	.	.	.	.	.	.	.	.	.	20fff#	.
.	.	16ryy	.	16ryy	.	.	.	.	.	.	.	.	.	.	.	.	.	.	.	.	16ryy	.	.	16ryy	.	.	16ryy	.	.	.	.	.	.	.	.	.	16ryy	.	.	.	.	.	.	.
.	.	.	.	.	.	20dd#JJ 20ddd#	.	20ff#JJ 20fff#	.	.	.	.	.	.	.	.	.	.	.	.	.	.	.	.	.	.	.	.	.	.	.	.	.	.	.	.	.	.	.	.	.	.	20fff#JJ	.
=82	=82	=82	=82	=82	=82	=82	=82	=82	=82	=82	=82	=82	=82	=82	=82	=82	=82	=82	=82	=82	=82	=82	=82	=82	=82	=82	=82	=82	=82	=82	=82	=82	=82	=82	=82	=82	=82	=82	=82	=82	=82	=82	=82	=82
8ryy	.	16ryy	.	16ryy	.	16cc#XLL 16ccc#X	.	(16ff#XLL 16fff#X	.	4r	.	2ryy	.	8ryy	.	8ryy	.	8ryy	.	8ryy	8ryy	.	16ryy	8ryy	.	16ryy	8ryy	.	8ryy	.	8ryy	.	8ryy	.	8ryy	.	8ryy	.	8ryy	.	8ryy	.	8fff#X'	.
.	.	16ryy	.	16ryy	.	16cc# 16ccc#	.	16ee 16eee)	.	.	.	.	.	.	.	.	.	.	.	.	.	.	16ryy	.	.	16ryy	.	.	.	.	.	.	.	.	.	.	.	.	.	.	.	.	.	.
.	.	.	.	.	.	.	.	.	.	.	.	.	.	.	.	.	.	.	.	.	.	.	.	.	.	.	.	.	.	.	.	.	.	.	8ryy	.	.	.	.	.	.	.	.	.
8ryy	.	16ryy	.	16ryy	.	16cc# 16ccc#	.	16ee 16eee	.	.	.	.	.	8ryy	.	8ryy	.	16ryy	.	16ryy	8ryy	.	16ryy	8ryy	.	16ryy	8ryy	.	8ryy	.	8ryy	.	4ryy	.	8ryy	.	16ryy	.	8ryy	.	4ryy	.	8r	.
.	.	16ryy	.	16ryy	.	16cc#JJ 16ccc#	.	16eeJJ 16eee	.	.	.	.	.	.	.	.	.	16ryy	.	16ryy	.	.	16ryy	.	.	16ryy	.	.	.	.	.	.	.	.	.	.	16ryy	.	.	.	.	.	.	.
4ryy	.	16ryy	.	16ryy	.	(20cc#LL 20ccc#	.	(20eeLL 20eee	.	20Rcc\LL	f	.	.	4ryy	.	4ryy	.	16ryy	.	16ryy	4ryy	.	8ryy	16ryy	.	8ryy	16ryy	.	4ryy	.	4ryy	.	.	.	8ryy	.	8ryy	.	16ryy	.	.	.	20fff#LL	.
.	.	.	.	.	.	20dd#X 20ddd#X)	.	20ff# 20fff#)	.	20Rcc\	.	.	.	.	.	.	.	.	.	.	.	.	.	.	.	.	.	.	.	.	.	.	.	.	.	.	.	.	.	.	.	.	20fff#	.
.	.	16ryy	.	16ryy	.	.	.	.	.	.	.	.	.	.	.	.	.	16ryy	.	16ryy	.	.	.	16ryy	.	.	16ryy	.	.	.	.	.	.	.	.	.	.	.	8.ryy	.	.	.	.	.
.	.	.	.	.	.	20dd# 20ddd#	.	20ff# 20fff#	.	20Rcc\	.	.	.	.	.	.	.	.	.	.	.	.	.	.	.	.	.	.	.	.	.	.	.	.	.	.	.	.	.	.	.	.	20fff#	.
.	.	.	.	.	.	.	.	.	.	.	.	.	.	.	.	.	.	.	.	.	.	.	.	.	.	.	.	.	.	.	.	.	.	.	8ryy	.	.	.	.	.	.	.	.	.
.	.	16ryy	.	16ryy	.	.	.	.	.	.	.	.	.	.	.	.	.	16ryy	.	16ryy	.	.	8ryy	16ryy	.	8ryy	16ryy	.	.	.	.	.	8ryy	.	8ryy	.	16ryy	.	.	.	8ryy	.	.	.
.	.	.	.	.	.	20dd# 20ddd#	.	20ff# 20fff#	.	20Rcc\	.	.	.	.	.	.	.	.	.	.	.	.	.	.	.	.	.	.	.	.	.	.	.	.	.	.	.	.	.	.	.	.	20fff#	.
.	.	16ryy	.	16ryy	.	.	.	.	.	.	.	.	.	.	.	.	.	16ryy	.	16ryy	.	.	.	16ryy	.	.	16ryy	.	.	.	.	.	.	.	.	.	16ryy	.	.	.	.	.	.	.
.	.	.	.	.	.	20dd#JJ 20ddd#	.	20ff#JJ 20fff#	.	20Rcc\JJ	.	.	.	.	.	.	.	.	.	.	.	.	.	.	.	.	.	.	.	.	.	.	.	.	.	.	.	.	.	.	.	.	20fff#JJ	.
*	*	*clefG2	*	*	*	*	*	*	*	*	*	*	*	*	*	*	*	*	*	*	*	*	*	*	*	*	*	*	*	*	*	*	*	*	*	*	*	*	*	*	*	*	*	*
=83	=83	=83	=83	=83	=83	=83	=83	=83	=83	=83	=83	=83	=83	=83	=83	=83	=83	=83	=83	=83	=83	=83	=83	=83	=83	=83	=83	=83	=83	=83	=83	=83	=83	=83	=83	=83	=83	=83	=83	=83	=83	=83	=83	=83
4ryy	.	16ryy	.	16ryy	.	16cc#XLL 16ccc#X	.	16ff#XLL 16fff#X	.	2r	.	16ryy	4ryy	4ryy	.	4ryy	.	8ryy	.	8ryy	8ryy	.	16ryy	8ryy	.	16ryy	8ryy	.	4ryy	.	4ryy	.	8ryy	.	8ryy	.	8ryy	.	8ryy	.	8ryy	.	8fff#X'	.
.	.	16ryy	.	16ryy	.	16cc# 16ccc#	.	16ff# 16fff#	.	.	.	16ryy	.	.	.	.	.	.	.	.	.	.	16ryy	.	.	16ryy	.	.	.	.	.	.	.	.	.	.	.	.	.	.	.	.	.	.
*	*	*	*	*	*	*	*	*	*	*	*	*	*	*	*	*	*	*	*	*	*	*	*	*	*	*	*	*	*	*	*	*	*	*	*	*	*^	*	*	*	*	*	*	*
.	.	16ryy	.	16ryy	.	16cc# 16ccc#	.	16ff# 16fff#	.	.	.	8ryy	.	.	.	.	.	8ryy	.	8ryy	16ryy	.	16ryy	8ryy	.	16ryy	8ryy	.	.	.	.	.	4ryy	.	4ryy	.	4.ryy	4ryy	.	4ryy	.	4ryy	.	8r	.
.	.	16ryy	.	16ryy	.	16cc#JJ 16ccc#	.	16ff#JJ 16fff#	.	.	.	.	.	.	.	.	.	.	.	.	16ryy	.	16ryy	.	.	16ryy	.	.	.	.	.	.	.	.	.	.	.	.	.	.	.	.	.	.	.
8ryy	.	20ryy	.	20ryy	.	(20cc#LL 20ccc#	.	(20ff#LL 20fff#	.	.	.	4ryy	.	8ryy	.	8ryy	.	8ryy	.	4ryy	16ryy	.	8ryy	16ryy	.	8ryy	16ryy	.	8ryy	.	8ryy	.	.	.	.	.	.	.	.	.	.	.	.	20eeeLL	.
.	.	20ryy	.	20ryy	.	20b 20bb)	.	20ee 20eee)	.	.	.	.	.	.	.	.	.	.	.	.	.	.	.	.	.	.	.	.	.	.	.	.	.	.	.	.	.	.	.	.	.	.	.	20eee	.
.	.	.	.	.	.	.	.	.	.	.	.	.	.	.	.	.	.	.	.	.	16ryy	.	.	16ryy	.	.	16ryy	.	.	.	.	.	.	.	.	.	.	.	.	.	.	.	.	.	.
.	.	20ryy	.	20ryy	.	20b 20bb	.	20ee 20eee	.	.	.	.	.	.	.	.	.	.	.	.	.	.	.	.	.	.	.	.	.	.	.	.	.	.	.	.	.	.	.	.	.	.	.	20eee	.
8ryy	.	.	.	.	.	.	.	.	.	.	.	.	.	8ryy	4ryy	8ryy	4ryy	16ryy	.	.	16ryy	.	8ryy	16ryy	.	8ryy	16ryy	.	8ryy	.	8ryy	.	8ryy	.	8ryy	.	.	8ryy	.	8ryy	.	8ryy	.	.	.
.	.	20ryy	.	20ryy	.	20b 20bb	.	20ee 20eee	.	.	.	.	.	.	.	.	.	.	.	.	.	.	.	.	.	.	.	.	.	.	.	.	.	.	.	.	.	.	.	.	.	.	.	20eee	.
.	.	.	.	.	.	.	.	.	.	.	.	.	.	.	.	.	.	16ryy	.	.	16ryy	.	.	16ryy	.	.	16ryy	.	.	.	.	.	.	.	.	.	.	.	.	.	.	.	.	.	.
.	.	20ryy	.	20ryy	.	20bJJ 20bb	.	20eeJJ 20eee	.	.	.	.	.	.	.	.	.	.	.	.	.	.	.	.	.	.	.	.	.	.	.	.	.	.	.	.	.	.	.	.	.	.	.	20eeeJJ	.
=84	=84	=84	=84	=84	=84	=84	=84	=84	=84	=84	=84	=84	=84	=84	=84	=84	=84	=84	=84	=84	=84	=84	=84	=84	=84	=84	=84	=84	=84	=84	=84	=84	=84	=84	=84	=84	=84	=84	=84	=84	=84	=84	=84	=84	=84
8ryy	.	16ryy	.	16ryy	.	16cc#XLL 16ccc#X	.	16ff#XLL 16fff#X	.	4r	.	2ryy	.	8ryy	.	8ryy	.	16ryy	.	2ryy	16ryy	.	16ryy	8ryy	.	16ryy	8ryy	.	8ryy	.	8ryy	.	8ryy	.	8ryy	.	8ryy	8ryy	.	8ryy	.	8ryy	.	8fff#X'	.
.	.	16ryy	.	16ryy	.	16cc# 16ccc#	.	16ff# 16fff#	.	.	.	.	.	.	.	.	.	16ryy	.	.	16ryy	.	16ryy	.	.	16ryy	.	.	.	.	.	.	.	.	.	.	.	.	.	.	.	.	.	.	.
*	*	*	*	*	*	*	*	*	*	*	*	*	*	*	*	*clefC4	*	*	*	*	*	*	*	*	*	*	*	*	*	*	*	*	*	*	*	*	*	*	*	*	*	*	*	*	*
4ryy	.	16ryy	.	16ryy	.	16cc# 16ccc#	.	16ff# 16fff#	.	.	.	.	.	4ryy	.	4ryy	.	16ryy	.	.	16ryy	.	16ryy	8ryy	.	16ryy	8ryy	.	4ryy	.	4ryy	.	4ryy	.	4ryy	.	4.ryy	4ryy	.	4ryy	.	4ryy	.	8r	.
.	.	16ryy	.	16ryy	.	16cc#JJ 16ccc#	.	16ff#JJ 16fff#	.	.	.	.	.	.	.	.	.	16ryy	.	.	16ryy	.	16ryy	.	.	16ryy	.	.	.	.	.	.	.	.	.	.	.	.	.	.	.	.	.	.	.
.	.	20ryy	.	20ryy	.	(20cc#LL 20ccc#	.	(20ff#LL 20fff#	.	20Rcc\LL	f	.	.	.	.	.	.	16ryy	.	.	16ryy	.	8ryy	16ryy	.	8ryy	16ryy	.	.	.	.	.	.	.	.	.	.	.	.	.	.	.	.	20eeeLL	.
.	.	20ryy	.	20ryy	.	20b 20bb)	.	20ee 20eee)	.	20Rcc\	.	.	.	.	.	.	.	.	.	.	.	.	.	.	.	.	.	.	.	.	.	.	.	.	.	.	.	.	.	.	.	.	.	20eee	.
.	.	.	.	.	.	.	.	.	.	.	.	.	.	.	.	.	.	16ryy	.	.	16ryy	.	.	16ryy	.	.	16ryy	.	.	.	.	.	.	.	.	.	.	.	.	.	.	.	.	.	.
.	.	20ryy	.	20ryy	.	20b 20bb	.	20ee 20eee	.	20Rcc\	.	.	.	.	.	.	.	.	.	.	.	.	.	.	.	.	.	.	.	.	.	.	.	.	.	.	.	.	.	.	.	.	.	20eee	.
8ryy	.	.	.	.	.	.	.	.	.	.	.	.	.	8ryy	.	8ryy	.	8ryy	.	.	8ryy	.	8ryy	16ryy	.	8ryy	16ryy	.	8ryy	.	8ryy	.	8ryy	.	8ryy	.	.	8ryy	.	8ryy	.	8ryy	.	.	.
.	.	20ryy	.	20ryy	.	20b 20bb	.	20ee 20eee	.	20Rcc\	.	.	.	.	.	.	.	.	.	.	.	.	.	.	.	.	.	.	.	.	.	.	.	.	.	.	.	.	.	.	.	.	.	20eee	.
.	.	.	.	.	.	.	.	.	.	.	.	.	.	.	.	.	.	.	.	.	.	.	.	16ryy	.	.	16ryy	.	.	.	.	.	.	.	.	.	.	.	.	.	.	.	.	.	.
.	.	20ryy	.	20ryy	.	20bJJ 20bb	.	20eeJJ 20eee	.	20Rcc\JJ	.	.	.	.	.	.	.	.	.	.	.	.	.	.	.	.	.	.	.	.	.	.	.	.	.	.	.	.	.	.	.	.	.	20eeeJJ	.
*	*	*	*	*	*	*	*	*	*	*	*	*	*	*	*	*	*	*	*	*v	*v	*	*	*	*	*v	*v	*	*	*	*	*	*	*	*	*	*v	*v	*	*	*	*	*	*	*
*	*	*	*	*	*	*	*	*	*	*	*	*	*	*	*	*	*	*	*	*	*	*v	*v	*	*	*	*	*	*	*	*	*	*	*	*	*	*	*	*	*	*	*
*	*	*clefF4	*	*	*	*	*	*	*	*	*	*	*	*	*	*clefF4	*	*	*	*	*	*	*	*	*	*	*	*	*	*	*	*	*	*	*	*	*	*	*	*	*
=	=	=	=	=	=	=	=	=	=	=	=	=	=	=	=	=	=	=	=	=	=	=	=	=	=	=	=	=	=	=	=	=	=	=	=	=	=	=	=	=	=
*-	*-	*-	*-	*-	*-	*-	*-	*-	*-	*-	*-	*-	*-	*-	*-	*-	*-	*-	*-	*-	*-	*-	*-	*-	*-	*-	*-	*-	*-	*-	*-	*-	*-	*-	*-	*-	*-	*-	*-	*-	*-
!!!system-decoration: [(s1,s2,s3,s4,s5,s6,s7,s8)][(s9,s10,s11,s12,s13,s14)][(s15,s16)][(s17,s18,s19,s20,s21)]
!!!RDF**kern: > = above
!!!RDF**kern: < = below
!!!EED: Daniel Wright
!!!EEV: 2021/08/05
!!!EED2: Rafael Laurindo
!!!EEV2: 2022/02/05
